Sweet-Rainbow/icons/document-viewer.svg

<?xml version="1.0" encoding="UTF-8" standalone="no"?>
<!-- Generator: Gravit.io -->

<svg
   xmlns:dc="http://purl.org/dc/elements/1.1/"
   xmlns:cc="http://creativecommons.org/ns#"
   xmlns:rdf="http://www.w3.org/1999/02/22-rdf-syntax-ns#"
   xmlns:svg="http://www.w3.org/2000/svg"
   xmlns="http://www.w3.org/2000/svg"
   xmlns:sodipodi="http://sodipodi.sourceforge.net/DTD/sodipodi-0.dtd"
   xmlns:inkscape="http://www.inkscape.org/namespaces/inkscape"
   style="isolation:isolate"
   viewBox="0 0 36 36"
   width="48"
   height="48"
   version="1.1"
   id="svg28"
   sodipodi:docname="document-viewer.svg"
   inkscape:version="0.92.4 (5da689c313, 2019-01-14)">
  <metadata
     id="metadata34">
    <rdf:RDF>
      <cc:Work
         rdf:about="">
        <dc:format>image/svg+xml</dc:format>
        <dc:type
           rdf:resource="http://purl.org/dc/dcmitype/StillImage" />
        <dc:title></dc:title>
      </cc:Work>
    </rdf:RDF>
  </metadata>
  <defs
     id="defs32" />
  <sodipodi:namedview
     pagecolor="#ffffff"
     bordercolor="#666666"
     borderopacity="1"
     objecttolerance="10"
     gridtolerance="10"
     guidetolerance="10"
     inkscape:pageopacity="0"
     inkscape:pageshadow="2"
     inkscape:window-width="640"
     inkscape:window-height="480"
     id="namedview30"
     showgrid="false"
     inkscape:zoom="29.365243"
     inkscape:cx="25.325443"
     inkscape:cy="32"
     inkscape:current-layer="svg28"
     units="px" />
  <linearGradient
     id="_lgradient_8"
     x1="0.22078557"
     y1="0.047239967"
     x2="0.9022491"
     y2="0.90614605"
     gradientTransform="matrix(13.421,0,0,8,28.414,32)"
     gradientUnits="userSpaceOnUse">
    <stop
       offset="2.608695652173913%"
       stop-opacity="1"
       style="stop-color:rgb(237,184,212)"
       id="stop2" />
    <stop
       offset="98.69565217391305%"
       stop-opacity="1"
       style="stop-color:rgb(162,110,245)"
       id="stop4" />
  </linearGradient>
  <linearGradient
     id="_lgradient_9"
     x1="0.22078557"
     y1="0.047239967"
     x2="0.9022491"
     y2="0.90614605"
     gradientTransform="matrix(20,0,0,20,25.124,26)"
     gradientUnits="userSpaceOnUse">
    <stop
       offset="2.608695652173913%"
       stop-opacity="1"
       style="stop-color:rgb(237,184,212)"
       id="stop9" />
    <stop
       offset="98.69565217391305%"
       stop-opacity="1"
       style="stop-color:rgb(162,110,245)"
       id="stop11" />
  </linearGradient>
  <linearGradient
     id="_lgradient_10"
     x1="29.261122"
     y1="26.491774"
     x2="43.571712"
     y2="44.528618"
     gradientTransform="scale(0.99998993,1.0000101)"
     gradientUnits="userSpaceOnUse">
    <stop
       offset="2.608695652173913%"
       stop-opacity="1"
       style="stop-color:rgb(237,184,212)"
       id="stop14" />
    <stop
       offset="98.69565217391305%"
       stop-opacity="1"
       style="stop-color:rgb(162,110,245)"
       id="stop16" />
  </linearGradient>
  <linearGradient
     id="_lgradient_11"
     x1="0.22078557"
     y1="0.047239967"
     x2="0.9022491"
     y2="0.90614605"
     gradientTransform="matrix(38,0,0,44,2.876,2)"
     gradientUnits="userSpaceOnUse">
    <stop
       offset="2.608695652173913%"
       stop-opacity="1"
       style="stop-color:rgb(237,184,212)"
       id="stop21" />
    <stop
       offset="98.69565217391305%"
       stop-opacity="1"
       style="stop-color:rgb(162,110,245)"
       id="stop23" />
  </linearGradient>
  <g
     id="g844"
     transform="matrix(0.80898876,0,0,0.80898876,-1.6179774,-1.6179774)">
    <path
       id="path7"
       d="m 35.124,32 c -2.564,0 -4.889,1.403 -6.605,3.682 -0.14,0.186 -0.14,0.447 0,0.634 1.716,2.281 4.041,3.684 6.605,3.684 2.564,0 4.89,-1.403 6.606,-3.682 0.14,-0.186 0.14,-0.447 0,-0.634 C 40.014,33.403 37.688,32 35.124,32 Z m 0.184,6.817 c -1.702,0.107 -3.108,-1.296 -3.001,-3.001 0.088,-1.406 1.228,-2.545 2.633,-2.633 1.702,-0.107 3.108,1.296 3.001,3.001 -0.091,1.403 -1.23,2.542 -2.633,2.633 z m -0.085,-1.302 c -0.917,0.058 -1.675,-0.697 -1.614,-1.614 0.046,-0.758 0.661,-1.37 1.419,-1.419 0.917,-0.058 1.675,0.697 1.614,1.614 -0.049,0.761 -0.664,1.373 -1.419,1.419 z"
       style="fill:url(#_lgradient_8)"
       inkscape:connector-curvature="0" />
    <path
       id="path19"
       stroke-miterlimit="3"
       d="m 26.943,35.391 v 0 c -0.038,0.499 -0.475,0.875 -0.977,0.839 v 0 c -0.501,-0.037 -0.877,-0.474 -0.839,-0.975 v 0 c 0.186,-2.514 1.32,-4.869 3.172,-6.587 C 30.151,26.955 32.586,26 35.112,26 c 2.653,0 5.202,1.055 7.081,2.927 1.875,1.878 2.931,4.423 2.931,7.073 0,2.65 -1.056,5.195 -2.931,7.073 C 40.314,44.945 37.765,46 35.112,46 v 0 c -0.503,0 -0.91,-0.407 -0.91,-0.909 v 0 c 0,-0.502 0.407,-0.909 0.91,-0.909 v 0 c 2.171,0 4.255,-0.864 5.793,-2.396 1.534,-1.536 2.399,-3.618 2.399,-5.786 0,-2.168 -0.865,-4.25 -2.399,-5.786 -1.538,-1.532 -3.622,-2.396 -5.793,-2.396 -2.066,0 -4.06,0.777 -5.575,2.182 -1.516,1.405 -2.44,3.332 -2.594,5.391 z m 4.36,7.854 v 0 c 0.444,0.234 0.615,0.784 0.382,1.228 v 0 c -0.234,0.444 -0.784,0.615 -1.229,0.382 v 0 c -1.893,-0.996 -3.422,-2.573 -4.355,-4.496 v 0 c -0.221,-0.451 -0.034,-0.996 0.418,-1.216 v 0 c 0.453,-0.219 0.999,-0.031 1.22,0.421 v 0 c 0.765,1.577 2.012,2.863 3.564,3.681 z"
       style="vector-effect:non-scaling-stroke;fill:url(#_lgradient_9);fill-rule:evenodd;stroke:url(#_lgradient_10);stroke-width:1;stroke-linecap:square;stroke-linejoin:miter;stroke-miterlimit:3"
       inkscape:connector-curvature="0" />
    <path
       id="path26"
       d="m 21.876,42 v 0 c 1.104,0 2,0.896 2,2 v 0 c 0,1.104 -0.896,2 -2,2 v 0 h -14 c -2.76,0 -5,-2.24 -5,-5 V 7 c 0,-2.76 2.24,-5 5,-5 h 28 c 2.759,0 5,2.24 5,5 v 14 0 c 0,1.104 -0.896,2 -2,2 v 0 c -1.104,0 -2,-0.896 -2,-2 V 21 9 c 0,-1.656 -1.344,-3 -3,-3 h -24 c -1.656,0 -3,1.344 -3,3 v 30 c 0,1.656 1.344,3 3,3 z M 10.5,10 h 10.248 c 0.828,0 1.5,0.672 1.5,1.5 v 1 c 0,0.828 -0.672,1.5 -1.5,1.5 H 10.5 C 9.672,14 9,13.328 9,12.5 v -1 C 9,10.672 9.672,10 10.5,10 Z m 0,16 h 12.248 c 0.828,0 1.5,0.672 1.5,1.5 v 1 c 0,0.828 -0.672,1.5 -1.5,1.5 H 10.5 C 9.672,30 9,29.328 9,28.5 v -1 C 9,26.672 9.672,26 10.5,26 Z m 0,-8 h 18.248 c 0.828,0 1.5,0.672 1.5,1.5 v 1 c 0,0.828 -0.672,1.5 -1.5,1.5 H 10.5 C 9.672,22 9,21.328 9,20.5 v -1 C 9,18.672 9.672,18 10.5,18 Z"
       style="fill:url(#_lgradient_11);fill-rule:evenodd"
       inkscape:connector-curvature="0" />
  </g>
</svg>

<?xml version="1.0" encoding="UTF-8" standalone="no"?><!-- Generator: Gravit.io --><svg xmlns="http://www.w3.org/2000/svg" xmlns:xlink="http://www.w3.org/1999/xlink" style="isolation:isolate" viewBox="0 0 48 48" width="48pt" height="48pt"><linearGradient id="_lgradient_8" x1="0.22078557924020603" y1="0.04723996636961164" x2="0.9022490870014594" y2="0.9061460265379022" gradientTransform="matrix(13.421,0,0,8,28.414,32)" gradientUnits="userSpaceOnUse"><stop offset="2.608695652173913%" stop-opacity="1" style="stop-color:rgb(237,184,212)"/><stop offset="98.69565217391305%" stop-opacity="1" style="stop-color:rgb(162,110,245)"/></linearGradient><path d=" M 35.124 32 C 32.56 32 30.235 33.403 28.519 35.682 C 28.379 35.868 28.379 36.129 28.519 36.316 C 30.235 38.597 32.56 40 35.124 40 C 37.688 40 40.014 38.597 41.73 36.318 C 41.87 36.132 41.87 35.871 41.73 35.684 C 40.014 33.403 37.688 32 35.124 32 Z  M 35.308 38.817 C 33.606 38.924 32.2 37.521 32.307 35.816 C 32.395 34.41 33.535 33.271 34.94 33.183 C 36.642 33.076 38.048 34.479 37.941 36.184 C 37.85 37.587 36.711 38.726 35.308 38.817 Z  M 35.223 37.515 C 34.306 37.573 33.548 36.818 33.609 35.901 C 33.655 35.143 34.27 34.531 35.028 34.482 C 35.945 34.424 36.703 35.179 36.642 36.096 C 36.593 36.857 35.978 37.469 35.223 37.515 Z " fill="url(#_lgradient_8)"/><linearGradient id="_lgradient_9" x1="0.22078557924020603" y1="0.04723996636961164" x2="0.9022490870014594" y2="0.9061460265379022" gradientTransform="matrix(20,0,0,20,25.124,26)" gradientUnits="userSpaceOnUse"><stop offset="2.608695652173913%" stop-opacity="1" style="stop-color:rgb(237,184,212)"/><stop offset="98.69565217391305%" stop-opacity="1" style="stop-color:rgb(162,110,245)"/></linearGradient><linearGradient id="_lgradient_10" x1="0.22078557924020603" y1="0.04723996636961164" x2="0.9022490870014594" y2="0.9061460265379022"><stop offset="2.608695652173913%" stop-opacity="1" style="stop-color:rgb(237,184,212)"/><stop offset="98.69565217391305%" stop-opacity="1" style="stop-color:rgb(162,110,245)"/></linearGradient><path d=" M 26.943 35.391 L 26.943 35.391 C 26.905 35.89 26.468 36.266 25.966 36.23 L 25.966 36.23 C 25.465 36.193 25.089 35.756 25.127 35.255 L 25.127 35.255 C 25.313 32.741 26.447 30.386 28.299 28.668 C 30.151 26.955 32.586 26 35.112 26 C 37.765 26 40.314 27.055 42.193 28.927 C 44.068 30.805 45.124 33.35 45.124 36 C 45.124 38.65 44.068 41.195 42.193 43.073 C 40.314 44.945 37.765 46 35.112 46 L 35.112 46 C 34.609 46 34.202 45.593 34.202 45.091 L 34.202 45.091 C 34.202 44.589 34.609 44.182 35.112 44.182 L 35.112 44.182 C 37.283 44.182 39.367 43.318 40.905 41.786 C 42.439 40.25 43.304 38.168 43.304 36 C 43.304 33.832 42.439 31.75 40.905 30.214 C 39.367 28.682 37.283 27.818 35.112 27.818 C 33.046 27.818 31.052 28.595 29.537 30 C 28.021 31.405 27.097 33.332 26.943 35.391 Z  M 31.303 43.245 L 31.303 43.245 C 31.747 43.479 31.918 44.029 31.685 44.473 L 31.685 44.473 C 31.451 44.917 30.901 45.088 30.456 44.855 L 30.456 44.855 C 28.563 43.859 27.034 42.282 26.101 40.359 L 26.101 40.359 C 25.88 39.908 26.067 39.363 26.519 39.143 L 26.519 39.143 C 26.972 38.924 27.518 39.112 27.739 39.564 L 27.739 39.564 C 28.504 41.141 29.751 42.427 31.303 43.245 Z " fill-rule="evenodd" fill="url(#_lgradient_9)" vector-effect="non-scaling-stroke" stroke-width="1" stroke="url(#_lgradient_10)" stroke-linejoin="miter" stroke-linecap="square" stroke-miterlimit="3"/><linearGradient id="_lgradient_11" x1="0.22078557924020603" y1="0.04723996636961164" x2="0.9022490870014594" y2="0.9061460265379022" gradientTransform="matrix(38,0,0,44,2.876,2)" gradientUnits="userSpaceOnUse"><stop offset="2.608695652173913%" stop-opacity="1" style="stop-color:rgb(237,184,212)"/><stop offset="98.69565217391305%" stop-opacity="1" style="stop-color:rgb(162,110,245)"/></linearGradient><path d=" M 21.876 42 L 21.876 42 C 22.98 42 23.876 42.896 23.876 44 L 23.876 44 C 23.876 45.104 22.98 46 21.876 46 L 21.876 46 L 7.876 46 C 5.116 46 2.876 43.76 2.876 41 L 2.876 7 C 2.876 4.24 5.116 2 7.876 2 L 35.876 2 C 38.635 2 40.876 4.24 40.876 7 L 40.876 21 L 40.876 21 C 40.876 22.104 39.98 23 38.876 23 L 38.876 23 C 37.772 23 36.876 22.104 36.876 21 L 36.876 21 L 36.876 9 C 36.876 7.344 35.532 6 33.876 6 L 9.876 6 C 8.22 6 6.876 7.344 6.876 9 L 6.876 39 C 6.876 40.656 8.22 42 9.876 42 L 21.876 42 L 21.876 42 L 21.876 42 Z  M 10.5 10 L 20.748 10 C 21.576 10 22.248 10.672 22.248 11.5 L 22.248 12.5 C 22.248 13.328 21.576 14 20.748 14 L 10.5 14 C 9.672 14 9 13.328 9 12.5 L 9 11.5 C 9 10.672 9.672 10 10.5 10 L 10.5 10 L 10.5 10 Z  M 10.5 26 L 22.748 26 C 23.576 26 24.248 26.672 24.248 27.5 L 24.248 28.5 C 24.248 29.328 23.576 30 22.748 30 L 10.5 30 C 9.672 30 9 29.328 9 28.5 L 9 27.5 C 9 26.672 9.672 26 10.5 26 L 10.5 26 Z  M 10.5 18 L 28.748 18 C 29.576 18 30.248 18.672 30.248 19.5 L 30.248 20.5 C 30.248 21.328 29.576 22 28.748 22 L 10.5 22 C 9.672 22 9 21.328 9 20.5 L 9 19.5 C 9 18.672 9.672 18 10.5 18 Z " fill-rule="evenodd" fill="url(#_lgradient_11)"/></svg>
